X:1
T:Title
%%score { 1 | ( 2 3 ) }
L:1/8
M:6/8
K:E
V:1 treble nm="Grand Piano"
V:2 bass 
V:3 bass 
V:1
 z3 z2[Q:1/4=100] E | G2 G F2 E | G2 [GB] [GB]2 [EG] | [GB][GB]>[GB] [Ac][GB][EG] | %4
[M:5/8] [DF]2 G A2 |[M:1/8] E |[M:3/4] G2 G F2 E | G2 [GB] [GB]2 G | Bc- c/B/[EG] [EG][DF] | E6 | %10
 [GB]3 [Ge]3 | [Ec]>[Ed] [Ee] .[EB]3 | [GB][GB]- [GB]/[GB]/[Ac] [GB][B,EG] | [B,DF]2 [EG] [FA]3 | %14
 [B,GB]3 [Ge]3 | [Ec]>[Ed] [Ee] [EB]2 [EG] | [GB][GB]- [GB]/[EAc]/[B,EG] [B,EG][A,DF] | %17
[M:5/8] [G,E]-[G,E]- [G,E]3 |] %18
V:2
 z3 z2 [E,G,] | [E,B,E]2 [E,B,E] [E,A,D]2 [E,G,] | [E,B,E]2 [E,E] [E,E]2 [E,B,] | %3
 [E,E][E,E]>[E,E] [E,E][E,E][E,B,] |[M:5/8] z2 E F2 |[M:1/8] [E,G,] | %6
[M:3/4] [E,B,E]2 [E,B,E] [E,A,D]2 [E,G,] | [E,B,E]2 [E,E] [E,E]2 [E,B,E] | %8
 [E,G,E][E,A,E]- [E,A,E]/[E,G,E]/[B,,B,] [B,,B,][B,,A,] | [E,G,]6 | [E,E]3 [E,B,]3 | %11
 [A,,A,]>[B,,A,] [C,A,] .[E,G,]3 | [E,E][E,E]- [E,E]/[E,E]/[E,E] [E,E]E, | z2 B, B,3 | %14
 E,3 [E,B,]3 | [A,,A,]>[B,,A,] [C,A,] [E,G,]2 [E,B,] | [E,E][E,E]- [E,E]/A,,/B,, B,,B,, | %17
[M:5/8] E,-E,- E,3 |] %18
V:3
 x6 | x6 | x6 | x6 |[M:5/8] [B,,B,]-[B,,B,]- [B,,B,]3 |[M:1/8] x |[M:3/4] x6 | x6 | x6 | x6 | x6 | %11
 x6 | x6 | B,,6 | x6 | x6 | x6 |[M:5/8] x5 |] %18

